X:54
T:A horgosi csárda
O:Horgos
Q:"Gyors tánctempó" 1/4=144
M:4/4
L:1/8
K:F
DFEF G2 F2 | ED A2 D2 z2 | 
FAAA AAAA | AAAA AAAA | GF G2 F2 z2 | 
Ac=Bc dd c2 | AAGA BB A2 | 
GF E2 D2 z2 |

